X: 141991
T: Not Far to Meath 
C: BB
L: 1/8
Q: 1/8=320
M: 6/8
R: jig
K: Ador
A/B/| "Am"cBA "G"GED | "Em"EGB "Am"AGE | "C"cBc "G"dcd | "Am"eae "G"ged |
"Am"cBA "G"GED | "C"ECE "G"GAB | "Am"cea "G"ged | "Am"cAG "Am"A2 :|
e|"Am"aec aec | "G"Bdg BAG | "Am"cAE cAE | "G"GAB "Em"edB |
"Am"aec aec | "G"Bdg BAG | "Am"EAc ecA |"Em"BGE "Am"A2 :|
